packages/ffe-icons/icons/filled/sm/nest_wifi_pro.svg

<svg xmlns="http://www.w3.org/2000/svg" height="20" viewBox="0 -960 960 960" width="20"><path d="M479.955-298.001q20.814 0 35.429-14.57 14.615-14.57 14.615-35.384t-14.57-35.429q-14.57-14.615-35.384-14.615t-35.429 14.57q-14.615 14.57-14.615 35.384t14.57 35.429q14.57 14.615 35.384 14.615Zm-116.909 182q-68.638 0-109.794-37.248-41.157-37.247-63.781-92.081-22.623-55.748-30.047-119.024-7.423-63.276-7.423-115.706 0-92.786 14.672-160.56 14.672-67.775 51.482-113.225 37.696-46.057 100.819-68.105 63.122-22.049 160.997-22.049 97.875 0 161.02 22.049 63.145 22.048 100.854 68.105 36.81 45.45 51.482 113.225 14.672 67.774 14.672 160.56 0 52.43-7.423 115.706-7.424 63.276-30.047 119.024-22.624 54.834-63.781 92.081-41.156 37.248-109.794 37.248H363.046Z"/></svg>

<svg xmlns="http://www.w3.org/2000/svg" height="20" viewBox="0 -960 960 960" width="20"><path d="M479.95-298q20.82 0 35.43-14.57Q530-327.14 530-347.95q0-20.82-14.57-35.43Q500.86-398 480.05-398q-20.82 0-35.43 14.57Q430-368.86 430-348.05q0 20.82 14.57 35.43Q459.14-298 479.95-298Zm-116.9 182q-68.64 0-109.8-37.25t-63.78-92.08q-22.62-55.75-30.05-119.02Q152-427.63 152-480.06q0-92.79 14.67-160.56 14.68-67.78 51.49-113.22 37.69-46.06 100.81-68.11Q382.1-844 479.97-844q97.88 0 161.02 22.05 63.15 22.05 100.85 68.11 36.81 45.44 51.49 113.22Q808-572.85 808-480.06q0 52.43-7.42 115.71-7.43 63.27-30.05 119.02-22.62 54.83-63.78 92.08T596.95-116h-233.9Z"/></svg>
